packages/radix-icons/twoTone/15/slash.svg

<svg width="15" height="15" fill="none" xmlns="http://www.w3.org/2000/svg">
  <path
    fill-rule="evenodd"
    clip-rule="evenodd"
    d="M13.3977 7.49988C13.3977 10.7571 10.7571 13.3977 7.49988 13.3977C6.05131 13.3977 4.72472 12.8755 3.69809 12.009L3.35355 12.3536L2.64645 11.6464L2.99097 11.3019C2.12437 10.2753 1.60205 8.94857 1.60205 7.49988C1.60205 4.2426 4.2426 1.60205 7.49988 1.60205C8.94857 1.60205 10.2753 2.12437 11.3019 2.99097L11.6464 2.64645L12.3536 3.35355L12.009 3.69809C12.8755 4.72472 13.3977 6.05131 13.3977 7.49988Z"
    fill="currentColor"
    opacity=".2"
  />
  <path
    fill-rule="evenodd"
    clip-rule="evenodd"
    d="M7.49991 1.12704C3.98029 1.12704 1.12708 3.98026 1.12708 7.49988C1.12708 9.07975 1.70198 10.5254 2.654 11.6389L2.64647 11.6464L2.76161 11.7616C2.912 11.9287 3.0711 12.0878 3.2382 12.2382L3.35358 12.3535L3.36113 12.346C4.47464 13.2979 5.92015 13.8727 7.49991 13.8727C11.0195 13.8727 13.8727 11.0195 13.8727 7.49988C13.8727 5.92011 13.2979 4.47461 12.346 3.3611L12.3536 3.35355L12.2382 3.23817C12.0878 3.07107 11.9287 2.91197 11.7616 2.76158L11.6465 2.64644L11.6389 2.65397C10.5254 1.70195 9.07978 1.12704 7.49991 1.12704ZM10.9648 3.32815C10.0251 2.54688 8.81739 2.07704 7.49991 2.07704C4.50496 2.07704 2.07708 4.50493 2.07708 7.49988C2.07708 8.81736 2.54691 10.0251 3.32818 10.9647L10.9648 3.32815ZM4.03531 11.6718C4.97488 12.453 6.18254 12.9227 7.49991 12.9227C10.4948 12.9227 12.9227 10.4948 12.9227 7.49988C12.9227 6.18251 12.453 4.97485 11.6718 4.03528L4.03531 11.6718Z"
    fill="currentColor"
  />
</svg>

<svg width="15" height="15" fill="none" xmlns="http://www.w3.org/2000/svg">
  <path
    fill-rule="evenodd"
    clip-rule="evenodd"
    d="M13.398 7.5a5.898 5.898 0 01-9.7 4.509l-.344.345-.708-.708.345-.344a5.898 5.898 0 018.31-8.31l.345-.346.708.708-.345.344A5.874 5.874 0 0113.398 7.5z"
    fill="currentColor"
    opacity=".2"
  />
  <path
    fill-rule="evenodd"
    clip-rule="evenodd"
    d="M7.5 1.127a6.373 6.373 0 00-4.846 10.512l-.008.007.116.116c.15.167.31.326.476.476l.116.116.007-.008a6.373 6.373 0 008.985-8.985l.008-.007-.116-.116a6.414 6.414 0 00-.476-.476l-.116-.116-.007.008a6.348 6.348 0 00-4.14-1.527zm3.465 2.201a5.423 5.423 0 00-7.637 7.637l7.637-7.637zm-6.93 8.344a5.423 5.423 0 007.636-7.637l-7.636 7.637z"
    fill="currentColor"
  />
</svg>
